!!!COM: Henri Reber
!!!CNT: Francais
!!!TXO: Francais
!!!OTL: Si Mes Vers Avaient des Ailes
!!!LYR: Victor Hugo
!!!ODT: 1863/
!!!ENC: Jacob Pegg
!!!YOR: Romantic French Song 1830-1870, David Tunley, ed., New York: Garland Publishing, Inc., 1995, vol. 3
!!NB: Vocal melody and text only encoded.
!!NB: First instance of melodic material only encoded.
**kern	**silbe
*clef G2	*
*k[b-]	*
*M3/4	*
=9	=9
{4a	{Mes
2a	vers
=10	=10
4g#	fuir-
2g#	-aient,
=11	=11
(4a	doux
4dd)	|
4cc	et
=12	=12
2a	fre\-
4a}	-les,}
=13	=13
{4g	{Vers
2g	vo-
=14	=14
4f#	-tre
2f#	jar-
=15	=15
(4g	-din
b-q	|
4a)	|
4g	si
=16	=16
2.cc}	beaux,}
=17	=17
{4cc	{Si
2cc	mes
=18	=18
4bn	vers
2bn	a-
=19	=19
(4cc	-vaient
4f)	|
4ff	des
=20	=20
(2ff	ai-
4dd)	|
=21	=21
4b}	-les,}
{(4f	{Des
4g)	|
=22	=22
(4a	ai-
ccq	|
4b-)	|
4a	-les
=23	=23
4cc	com-
4b	-me
4e	l'oi-
=24	=24
2.f}	-seau.}
=25	=25
2.r	.
=26	=26
{4f	{Ils
2f	vo-
=27	=27
4b-	-le-
2b-	-raient,
=28	=28
(4a-	e/-
4dd-)	|
(4b-	-tin
16ccq	|
16b-q)	|
=29	=29
2a-	-cel-
4a-}	-les,}
=30	=30
{4g-	{Vers
2g-	vo-
=31	=31
4a-	-tre
2a-	foy-
=32	=32
(4g-	-er
4b-)	|
4a-	qui
=33	=33
[2.ee-	rit,
=34	=34
8ee-]}	|}
8r	.
{4dd-	{Si
4cc-	mes
=35	=35
2b-	vers
4b-	a-
=36	=36
(4b-	-vaient
16cc-q	|
16b-q	|
4a-)	|)
4g-	des
=37	=37
2.f	ai-
=38	=38
4f}	-les,}
{(4f	{Des
4g)	|
=39	=39
(4g#	ai-
4a)	|
4dd	-les
=40	=40
4cc	com-
4b-	-me
4e	l'es-
=41	=41
2.f}	-prit.}
=42	=42
2.r	.
=43	=43
{4a	{Pre\s
2a	de
=44	=44
4g#	vous,
2g#	purs
=45	=45
(4a	et
4dd)	|
4cc	fi-
=46	=46
2a	-de\-
4a}	-les,}
=47	=47
{4g	{Ils
2g	ac-
=48	=48
4f#	-cour-
2f#	-raient
=49	=49
(4g	nuit
b-q	|
4a)	|
4g	et
=50	=50
2.cc}	jour,}
=51	=51
{4cc	{Si
2cc	mes
=52	=52
4bn	vers
2bn	a-
=53	=53
(4cc	-vaient
4f)	|
4ff	des
=54	=54
(2ff	ai-
4dd)	|
=55	=55
4b-}	-les,}
{(4f	{Des
4g)	|
=56	=56
(4a	ai-
ccq	|
4b-)	|
4a	-les
=57	=57
4cc	com-
4b-	-me
4e	l'a-
=58	=58
2.f}	-mour.}
*-	*-
